X: 5332
T: Brumley Brae
R: reel
M: 4/4
K: Dmajor
|:z|d2cd AFDd|cdAF DEED|EDEF GFED|CEFA BAcA|
d2cd AFDd|cdAF DEED|Egfe dcBA|BAFE D2z:|
a|^gafd Aaga|fdAa ^gafd|eB~B2 bagf|edcB Aa^ga|
^gafd Aaga|fdAa ^gafd|eB~B2 dBAG|FGEF D2za|
^gafd Aaga|fdAa ^gafd|eB~B2 bagf|edcB A2(3ABc|
d2cd AFDd|cdAF DEED|Egfe dcBA|BAFE D2z||

